X:1
T: Abbey/Virginia Set
T:Abbey Reel
M:4/4
K:Ador
|:B|A2B A2GE|A/B/A GA B[Gd]dB|A3B AGEF|G3A Bdd:|
g|egg2 a2ba|gabg aged|egg2 a2ga|bgaf gedg|
egg2 a2bg|agbg aged|egg2 a2ga|bgaf ged|
T:Virginia Reel
K:D
|:DBBA B3A|BAdB AFEF|DFF2 A3B|AFBF AFEF|
DBBA B3A|BAdB ABde|f3e defe|dBAF BEE2:|:
defe d3A|BAFA dAFA|defe defg| afbf afeg|
f3d efdB|AFF2 ABde|f3e defe|dBAF BEE2:|

